X:1
T:Sängerleben
T:Louis Hetsch
T:Johann Joseph Reiff
T:Sängerleben
T:CPDL - Creative Commons Attribution Non Commercial 3.0
C:Louis Hetsch
Z:Johann Joseph Reiff
Z:CPDL - Creative Commons Attribution Non Commercial 3.0
%%score [ ( 1 2 ) ( 3 4 ) ]
L:1/8
Q:1/4=72
M:3/4
K:C
V:1 treble-8 nm="Tenor"
V:2 treble-8 
V:3 bass nm="Bass"
V:4 bass 
V:1
"^Allegretto"!f!"^Tutti" c | e>B ce g>f | e2 z c fe | (d2 ed A)d | (c2 B2)"^Soli" G2 | %5
w: 1.~Der|Sän- ger ist der frei‘s- te|Mann auf Got- tes|wei- * * * ter|Welt; _ er|
w: 2.~Er|kennt der Men- schen Sor- gen|nicht und nicht des|Le- * * * bens|Drang, _ und|
w: 3.~Mit|fri- schem Mut und hei- term|Sinn ge- stimmt zu|Lust _ _ _ und|Scherz, _ zieht|
 =f3!mf! e/d/ cB | c>e d2!<(! G!<)!g |!>(! (g f2)!>)! e/d/ cB | c>e d2"^Tutti"!ff! G2 | %9
w: schlägt die * gold‘- nen|Sai- ten an und _|singt, _ und * singt, was|ihm ge- fällt, er|
w: was des * In- nern|Stim- me spricht, be- *|kennt, _ be- * kennt er|im Ge- sang, und|
w: se- lig * er durch‘s|Le- ben hin, be- *|freun- * det * al- ler\-,|al- ler- wärts, zieht|
 c>G E G/c/ | ec | g4 c2 | c3[Q:1/4=66] e !^!f>B | c4 !fermata!z |] %14
w: schlägt die gold‘- nen _|Sai- ten|an und|singt, was ihm ge-|fällt.|
w: was des In- nern _|Stim- me|spricht, be-|kennt er im Ge-|sang.|
w: se- lig er durch‘s *|Le- ben|hin, be-|freun- det al- ler-|wärts.|
V:2
 G | c>G Gc d>d | c2 x c Bc | c4- cA | (A2 G2) G2 | d3 B cG | G>c B2 Gd | d3 B cG | G>c B2 G2 | %9
 c>G E G/c/ | ec | e4 c2 | (c2"^poco ritenuto" B)c A>G | G4 x |] %14
V:3
!f! E, | G,>F, E,G, B,>B, | C2 z2 z G, | A,A, A,2 ^F,2 | (^F,2 G,2) G,2 | B,3!mf! G, G,F, | %6
w: ||* auf|Got- tes wei- ter|||
w: ||* und|nicht des Le- bens|||
w: ||* ge-|stimmt zu Lust und|||
 E,>G, G,2!<(! G,!<)!B, |!>(! B,3!>)! G, G,F, | E,>G, G,2!ff! G,2 | C>G, E, G,/C/ |!ff! EC | %11
w: |||||
w: |||||
w: |||||
 C4 G,E, | A,2 G,G, !^!=F,>F, | E,4 !fermata!z |] %14
w: |||
w: |||
w: |||
V:4
 C, | C,>D, E,C, G,>G, | C,C, F,E, D,C, | F,2 ^F,2 D,2 | (D,2 G,,2) G,2 | G,3 =F, E,D, | %6
w: ||* 1.~auf Got- * * tes|wei- * ter|||
w: ||* 2.~und nicht _ _ des|Le- * bens|||
w: ||* 3.~ge- stimmt _ _ zu|Lust _ und|||
 E,>C, G,,2 G,2 | G,3 F, E,D, | E,>C, G,,2 z2 | x4 | G,2 | C>G, E,G, E,C, | F,^F, G,E, D,>G,, | %13
w: ||||er|schlägt die gold‘- nen Sai- ten|an und singt, was ihm ge-|
w: ||||und|was des In- nern Stim- me|spricht, be- kennt er im Ge-|
w: ||||zieht|se- lig er durch‘s Le- ben|hin, be- freun- det al- ler-|
 C,4 x |] %14
w: fällt.|
w: sang.|
w: wärts.|

